X:41
T:Bekecs alatt Nyárád tere
M:4/4
L:1/4
K:D
D<F A<A | dA G<F |
dAFA | GFED |
F>G F<E | F<G FE |
BBBA | dDE>F | E<D D z |

